tooltip-minus.svg

<svg  viewBox="0 0 24 24" fill="currentColor"><path  d="M20 2H4C2.9 2 2 2.9 2 4V16C2 17.11 2.9 18 4 18H8L12 22L16 18H20C21.11 18 22 17.11 22 16V4C22 2.9 21.11 2 20 2M16 11H8V9H16V11Z"/></svg>

<svg fill="currentColor" viewBox="0 0 24 24"><path d="M20 2H4c-1.1 0-2 .9-2 2v12a2 2 0 0 0 2 2h4l4 4 4-4h4c1.11 0 2-.89 2-2V4a2 2 0 0 0-2-2m-4 9H8V9h8z"/></svg>
